img/logo-github-15.svg

<svg fill="none" height="24" viewBox="0 0 24 24" width="24" xmlns="http://www.w3.org/2000/svg" xmlns:xlink="http://www.w3.org/1999/xlink"><clipPath id="a"><path d="m0 0h24v24h-24z"/></clipPath><g clip-path="url(#a)"><path clip-rule="evenodd" d="m11.9633-.00032044c-6.6055 0-11.9633 5.35780044-11.9633 11.96332044 0 5.2844 3.44954 9.7614 8.14679 11.3761.58715.0734.80734-.2935.80734-.5871s0-1.0275 0-2.0551c-3.30275.734-4.0367-1.6147-4.0367-1.6147-.51376-1.3944-1.3211-1.7614-1.3211-1.7614-1.10092-.734.07339-.734.07339-.734 1.17432.0734 1.83487 1.2477 1.83487 1.2477 1.10091 1.8349 2.78899 1.3211 3.44954 1.0276.07339-.8074.44037-1.3211.73394-1.6147-2.6422-.2936-5.43119-1.3211-5.43119-5.945 0-1.32107.44037-2.34859 1.24771-3.22933-.0734-.22018-.51376-1.46789.14679-3.08256 0 0 1.02752-.29358 3.30275 1.2477.95413-.29358 1.98167-.36697 3.00917-.36697s2.055.14679 3.0092.36697c2.2752-1.54128 3.3027-1.2477 3.3027-1.2477.6606 1.61467.2202 2.86238.1468 3.15596.734.80734 1.2477 1.90823 1.2477 3.22933 0 4.6239-2.789 5.578-5.4312 5.8716.4404.367.8074 1.1009.8074 2.2018v3.3028c0 .2936.2202.6605.8073.5871 4.7707-1.6147 8.1468-6.0917 8.1468-11.3761-.0734-6.60552-5.4312-11.96332044-12.0367-11.96332044z" fill="#000" fill-rule="evenodd"/></g></svg>

<svg width="24" height="24" viewBox="0 0 24 24" fill="none" xmlns="http://www.w3.org/2000/svg">
<g clip-path="url(#clip0_3527_3855)">
<path fill-rule="evenodd" clip-rule="evenodd" d="M11.9633 -0.000320435C5.3578 -0.000320435 0 5.35748 0 11.963C0 17.2474 3.44954 21.7244 8.14679 23.3391C8.73394 23.4125 8.95413 23.0456 8.95413 22.752C8.95413 22.4584 8.95413 21.7245 8.95413 20.6969C5.65138 21.4309 4.91743 19.0822 4.91743 19.0822C4.40367 17.6878 3.59633 17.3208 3.59633 17.3208C2.49541 16.5868 3.66972 16.5868 3.66972 16.5868C4.84404 16.6602 5.50459 17.8345 5.50459 17.8345C6.6055 19.6694 8.29358 19.1556 8.95413 18.8621C9.02752 18.0547 9.3945 17.541 9.68807 17.2474C7.04587 16.9538 4.25688 15.9263 4.25688 11.3024C4.25688 9.98133 4.69725 8.95381 5.50459 8.07307C5.43119 7.85289 4.99083 6.60518 5.65138 4.99051C5.65138 4.99051 6.6789 4.69693 8.95413 6.23821C9.90826 5.94463 10.9358 5.87124 11.9633 5.87124C12.9908 5.87124 14.0183 6.01803 14.9725 6.23821C17.2477 4.69693 18.2752 4.99051 18.2752 4.99051C18.9358 6.60518 18.4954 7.85289 18.422 8.14647C19.156 8.95381 19.6697 10.0547 19.6697 11.3758C19.6697 15.9997 16.8807 16.9538 14.2385 17.2474C14.6789 17.6144 15.0459 18.3483 15.0459 19.4492C15.0459 21.0639 15.0459 22.3116 15.0459 22.752C15.0459 23.0456 15.2661 23.4125 15.8532 23.3391C20.6239 21.7244 24 17.2474 24 11.963C23.9266 5.35748 18.5688 -0.000320435 11.9633 -0.000320435Z" fill="black"/>
</g>
<defs>
<clipPath id="clip0_3527_3855">
<rect width="24" height="24" fill="white"/>
</clipPath>
</defs>
</svg>
